X:1047
T:The black Lassie's no Canty.
M:C
L:1/8
Q:1/4=120
I: :: ||
Z:Jack Campin * www.campin.me.uk * 2009
K:G Dorian % Aird uses two flats and corrects the e's with accidentals
 A|G/G/G d2 Td>cAg|G/G/G G2 A>GFA |G/G/G d2  d>cdg |fd`c>A G2G:|
^f|g>a```b>a gd`de|f>g```fc AF`F^f|g>a```b>a gd`dg |f<dc>A G2G
^f|g>a```b>a gd`de|f>g```fc AF`F^f|g>a```b>a g>fa>g|f<dc>A G2G|]

